icons/ChevronLeft.svg

<svg width="24" height="24" viewBox="0 0 24 24" fill="none" xmlns="http://www.w3.org/2000/svg">
<path fill-rule="evenodd" clip-rule="evenodd" d="M9.46967,12.5303c-0.29289,-0.2929 -0.29289,-0.7677 0,-1.0606l4.00003,-4.00003c0.2929,-0.29289 0.7677,-0.29289 1.0606,0c0.2929,0.29289 0.2929,0.76777 0,1.06066l-3.4696,3.46967l3.4696,3.4697c0.2929,0.2929 0.2929,0.7677 0,1.0606c-0.2929,0.2929 -0.7677,0.2929 -1.0606,0z" fill="#002B51"/>
</svg>

<svg width="24" height="24" viewBox="0 0 24 24" fill="none" xmlns="http://www.w3.org/2000/svg">
<path fill-rule="evenodd" clip-rule="evenodd" d="M9.46967 12.5303C9.17678 12.2374 9.17678 11.7626 9.46967 11.4697L13.4697 7.46967C13.7626 7.17678 14.2374 7.17678 14.5303 7.46967C14.8232 7.76256 14.8232 8.23744 14.5303 8.53033L11.0607 12L14.5303 15.4697C14.8232 15.7626 14.8232 16.2374 14.5303 16.5303C14.2374 16.8232 13.7626 16.8232 13.4697 16.5303L9.46967 12.5303Z" fill="#002B51"/>
</svg>
